svg/u20e3.svg

<svg viewBox="0 0 128 128" xmlns="http://www.w3.org/2000/svg">
  <path d="M116,4H12c-4.4,0-8,3.6-8,8v104c0,4.4,3.6,8,8,8h104c4.4,0,8-3.6,8-8V12C124,7.6,120.4,4,116,4z" fill="#427687"/>
  <path d="M121.7,6.3C120.2,4.9,118.2,4,116,4H12c-4.4,0-8,3.6-8,8v104c0,2.2,0.9,4.2,2.3,5.7l16.8-16.8h76 c3.3,0,5.9-2.7,5.9-5.9V23L121.7,6.3z" fill="#8CAFBF"/>
  <path d="M39.7,12.9c0-2.3-1.6-3-10.8-2.7c-7.7,0.3-11.5,1.2-13.8,4 s-2.9,8.5-3,15.3c0,4.8,0,9.3,2.5,9.3c3.4,0,3.4-7.9,6.2-12.3C26.2,17.8,39.7,15.9,39.7,12.9z" opacity="0.5" fill="#B4E1ED" enable-background="new "/>
</svg>

<svg viewBox="0 0 128 128" xmlns="http://www.w3.org/2000/svg">
  <defs/>
  <path d="M116,4 L12,4 C7.6,4 4,7.6 4,12 L4,116 C4,120.4 7.6,124 12,124 L116,124 C120.4,124 124,120.4 124,116 L124,12 C124,7.6 120.4,4 116,4 Z" fill="#427687"/>
  <path d="M121.7,6.3 C120.2,4.9 118.2,4 116,4 L12,4 C7.6,4 4,7.6 4,12 L4,116 C4,118.2 4.9,120.2 6.3,121.7 L23.1,104.9 L99.1,104.9 C102.4,104.9 105,102.2 105,99 L105,23 L121.7,6.3 Z" fill="#8CAFBF"/>
  <path d="M39.7,12.9 C39.7,10.6 38.1,9.9 28.9,10.2 C21.2,10.5 17.4,11.4 15.1,14.2 C12.8,17 12.2,22.7 12.1,29.5 C12.1,34.3 12.1,38.8 14.6,38.8 C18,38.8 18,30.9 20.8,26.5 C26.2,17.8 39.7,15.9 39.7,12.9 Z" fill="#B4E1ED" opacity="0.5"/>
</svg>
